X:1
T:Homeless Wassail
M:2/2
L:1/4
K:C
 E| A3/2 B/2 c e d B/2A/2| G3/2 B/2 c A B A/2G/2|
M:3/2
 E G| A3 E|
M:2/2
 A3/2 B/2 c e| d B/4- A3/4 G3/2 B/2| c AB/2-A/2| G| E G A3| G
M:2/2
| c c cB/2-c/2| d d e3/2 d/2| c A B/2- A G/2| A GE/2-F/2 G| c c cB/2-c/2|\
